www/assets/icons/hdr_off_select.svg

<svg width="24" height="24" viewBox="0 0 24 24" xmlns="http://www.w3.org/2000/svg" fill='currentColor'><path d="M18 18.5065V17.5065C18 16.7065 17.3 16.0065 16.5 16.0065H13V22.0065H14.5V20.0065H15.6L16.5 22.0065H18L17.1 19.9065C17.6 19.6065 18 19.1065 18 18.5065ZM16.5 18.5065H14.5V17.5065H16.5V18.5065ZM3.5 18.0065H1.5V16.0065H0V22.0065H1.5V19.5065H3.5V22.0065H5V16.0065H3.5V18.0065ZM10 16.0065H6.5V22.0065H10C10.8 22.0065 11.5 21.3065 11.5 20.5065V17.5065C11.5 16.7065 10.8 16.0065 10 16.0065ZM10 20.5065H8V17.5065H10V20.5065ZM24 20.0065H22V22.0065H20.5V20.0065H18.5V18.5065H20.5V16.5065H22V18.5065H24V20.0065ZM10.98 4.15648L9.42 2.59648C14.52 0.17648 19.83 5.48648 17.41 10.5865L15.85 9.02648C16.66 6.06648 13.94 3.34648 10.98 4.15648ZM6.34 2.34648L4.93 3.76648L6.59 5.42648C4.17 10.5265 9.48 15.8365 14.58 13.4165L16.24 15.0765L17.65 13.6665L6.34 2.34648ZM8.15 6.98648L13.02 11.8565C10.06 12.6665 7.34 9.94648 8.15 6.98648Z"/></svg>

<svg xmlns="http://www.w3.org/2000/svg" width="24" height="24" viewBox="0 0 24 24" fill='currentColor'><path d="M18 18.507v-1c0-.8-.7-1.5-1.5-1.5H13v6h1.5v-2h1.1l.9 2H18l-.9-2.1c.5-.3.9-.8.9-1.4m-1.5 0h-2v-1h2zm-13-.5h-2v-2H0v6h1.5v-2.5h2v2.5H5v-6H3.5zm6.5-2H6.5v6H10c.8 0 1.5-.7 1.5-1.5v-3c0-.8-.7-1.5-1.5-1.5m0 4.5H8v-3h2zm14-.5h-2v2h-1.5v-2h-2v-1.5h2v-2H22v2h2zM10.98 4.156l-1.56-1.56c5.1-2.42 10.41 2.89 7.99 7.99l-1.56-1.56c.81-2.96-1.91-5.68-4.87-4.87m-4.64-1.81-1.41 1.42 1.66 1.66c-2.42 5.1 2.89 10.41 7.99 7.99l1.66 1.66 1.41-1.41zm1.81 4.64 4.87 4.87c-2.96.81-5.68-1.91-4.87-4.87"/></svg>
